src/assets/outline/BrifecaseCross.svg

<svg width="24" height="24" viewBox="0 0 24 24"  xmlns="http://www.w3.org/2000/svg">
<path d="M12 18.9502C9.38 18.9502 7.25 16.8202 7.25 14.2002C7.25 11.5802 9.38 9.4502 12 9.4502C14.62 9.4502 16.75 11.5802 16.75 14.2002C16.75 16.8202 14.62 18.9502 12 18.9502ZM12 10.9502C10.21 10.9502 8.75 12.4102 8.75 14.2002C8.75 15.9902 10.21 17.4502 12 17.4502C13.79 17.4502 15.25 15.9902 15.25 14.2002C15.25 12.4102 13.79 10.9502 12 10.9502Z" />
<path d="M13.0699 16.0601C12.8799 16.0601 12.6899 15.9901 12.5399 15.8401L10.4299 13.7301C10.1399 13.4401 10.1399 12.9601 10.4299 12.6701C10.7199 12.3801 11.1999 12.3801 11.4899 12.6701L13.5999 14.7801C13.8899 15.0701 13.8899 15.5501 13.5999 15.8401C13.4499 15.9901 13.2599 16.0601 13.0699 16.0601Z" />
<path d="M10.9301 16.0899C10.7401 16.0899 10.5501 16.0199 10.4001 15.8699C10.1101 15.5799 10.1101 15.0999 10.4001 14.8099L12.5101 12.6999C12.8001 12.4099 13.2801 12.4099 13.5701 12.6999C13.8601 12.9899 13.8601 13.4699 13.5701 13.7599L11.4601 15.8699C11.3101 16.0099 11.1201 16.0899 10.9301 16.0899Z" />
<path d="M16.0002 22.7498H8.00023C3.38023 22.7498 2.52023 20.5998 2.30023 18.5098L1.55023 10.4998C1.44023 9.44977 1.41023 7.89977 2.45023 6.73977C3.35023 5.73977 4.84023 5.25977 7.00023 5.25977H17.0002C19.1702 5.25977 20.6602 5.74977 21.5502 6.73977C22.5902 7.89977 22.5602 9.44977 22.4502 10.5098L21.7002 18.4998C21.4802 20.5998 20.6202 22.7498 16.0002 22.7498ZM7.00023 6.74977C5.31023 6.74977 4.15023 7.07977 3.56023 7.73977C3.07023 8.27977 2.91023 9.10977 3.04023 10.3498L3.79023 18.3598C3.96023 19.9398 4.39023 21.2498 8.00023 21.2498H16.0002C19.6002 21.2498 20.0402 19.9398 20.2102 18.3498L20.9602 10.3598C21.0902 9.10977 20.9302 8.27977 20.4402 7.73977C19.8502 7.07977 18.6902 6.74977 17.0002 6.74977H7.00023Z" />
<path d="M16 6.75C15.59 6.75 15.25 6.41 15.25 6V5.2C15.25 3.42 15.25 2.75 12.8 2.75H11.2C8.75 2.75 8.75 3.42 8.75 5.2V6C8.75 6.41 8.41 6.75 8 6.75C7.59 6.75 7.25 6.41 7.25 6V5.2C7.25 3.44 7.25 1.25 11.2 1.25H12.8C16.75 1.25 16.75 3.44 16.75 5.2V6C16.75 6.41 16.41 6.75 16 6.75Z" />
<path d="M16.01 14.3898C15.67 14.3898 15.37 14.1598 15.28 13.8198C15.18 13.4198 15.42 13.0098 15.82 12.9098C17.77 12.4198 19.58 11.5698 21.2 10.3898C21.53 10.1498 22.01 10.2198 22.25 10.5598C22.49 10.8898 22.42 11.3598 22.08 11.6098C20.3 12.8998 18.32 13.8298 16.18 14.3698C16.13 14.3798 16.07 14.3898 16.01 14.3898Z" />
<path d="M8.00023 14.4201C7.94023 14.4201 7.88023 14.4101 7.82023 14.4001C5.81023 13.9101 3.92023 13.0601 2.19023 11.8801C1.85023 11.6501 1.76023 11.1801 1.99023 10.8401C2.22023 10.5001 2.69023 10.4101 3.03023 10.6401C4.61023 11.7201 6.33023 12.4901 8.17023 12.9401C8.57023 13.0401 8.82023 13.4401 8.72023 13.8501C8.65023 14.1901 8.34023 14.4201 8.00023 14.4201Z" />
</svg>

<?xml version="1.0" encoding="UTF-8"?>
<svg width="24" height="24" viewBox="0 0 24 24" xmlns="http://www.w3.org/2000/svg">
 <path d="m12 18.95c-2.62 0-4.75-2.13-4.75-4.75s2.13-4.75 4.75-4.75 4.75 2.13 4.75 4.75-2.13 4.75-4.75 4.75zm0-8c-1.79 0-3.25 1.46-3.25 3.25s1.46 3.25 3.25 3.25 3.25-1.46 3.25-3.25-1.46-3.25-3.25-3.25z"/>
 <path d="m13.07 16.06c-0.19 0-0.38-0.07-0.53-0.22l-2.11-2.11c-0.29-0.29-0.29-0.77 0-1.06s0.77-0.29 1.06 0l2.11 2.11c0.29 0.29 0.29 0.77 0 1.06-0.15 0.15-0.34 0.22-0.53 0.22z"/>
 <path d="m10.93 16.09c-0.19 0-0.38-0.07-0.53-0.22-0.29-0.29-0.29-0.77 0-1.06l2.11-2.11c0.29-0.29 0.77-0.29 1.06 0s0.29 0.77 0 1.06l-2.11 2.11c-0.15 0.14-0.34 0.22-0.53 0.22z"/>
 <path d="m16 22.75h-8c-4.62 0-5.48-2.15-5.7-4.24l-0.75-8.01c-0.11-1.05-0.14-2.6 0.9-3.76 0.9-1 2.39-1.48 4.55-1.48h10c2.17 0 3.66 0.49 4.55 1.48 1.04 1.16 1.01 2.71 0.9 3.77l-0.75 7.99c-0.22 2.1-1.08 4.25-5.7 4.25zm-9-16c-1.69 0-2.85 0.33-3.44 0.99-0.49 0.54-0.65 1.37-0.52 2.61l0.75 8.01c0.17 1.58 0.6 2.89 4.21 2.89h8c3.6 0 4.04-1.31 4.21-2.9l0.75-7.99c0.13-1.25-0.03-2.08-0.52-2.62-0.59-0.66-1.75-0.99-3.44-0.99h-10z"/>
 <path d="m16 6.75c-0.41 0-0.75-0.34-0.75-0.75v-0.8c0-1.78 0-2.45-2.45-2.45h-1.6c-2.45 0-2.45 0.67-2.45 2.45v0.8c0 0.41-0.34 0.75-0.75 0.75s-0.75-0.34-0.75-0.75v-0.8c0-1.76 0-3.95 3.95-3.95h1.6c3.95 0 3.95 2.19 3.95 3.95v0.8c0 0.41-0.34 0.75-0.75 0.75z"/>
 <path d="m16.01 14.39c-0.34 0-0.64-0.23-0.73-0.57-0.1-0.4 0.14-0.81 0.54-0.91 1.95-0.49 3.76-1.34 5.38-2.52 0.33-0.24 0.81-0.17 1.05 0.17 0.24 0.33 0.17 0.8-0.17 1.05-1.78 1.29-3.76 2.22-5.9 2.76-0.05 0.01-0.11 0.02-0.17 0.02z"/>
 <path d="m8.0002 14.42c-0.06 0-0.12-0.01-0.18-0.02-2.01-0.49-3.9-1.34-5.63-2.52-0.34-0.23-0.43-0.7-0.2-1.04s0.7-0.43 1.04-0.2c1.58 1.08 3.3 1.85 5.14 2.3 0.4 0.1 0.65 0.5 0.55 0.91-0.07 0.34-0.38 0.57-0.72 0.57z"/>
</svg>
